static/img/icon_document.svg

<svg width="24" height="24" viewBox="0 0 24 24" fill="none" xmlns="http://www.w3.org/2000/svg">
<path d="M12 18.75V8.25C12 7.42157 12.6716 6.75 13.5 6.75H19.05C19.2985 6.75 19.5 6.95147 19.5 7.2V17.0357" stroke="#111827" stroke-width="1.125" stroke-linecap="round"/>
<path d="M12 18.75V8.25C12 7.42157 11.3284 6.75 10.5 6.75H4.95C4.70147 6.75 4.5 6.95147 4.5 7.2V17.0357" stroke="#111827" stroke-width="1.125" stroke-linecap="round"/>
<path d="M13.5 17.25H19.5" stroke="#111827" stroke-width="1.125" stroke-linecap="round"/>
<path d="M10.5 17.25H4.5" stroke="#111827" stroke-width="1.125" stroke-linecap="round"/>
<path d="M12 18.75C12 17.9216 12.6716 17.25 13.5 17.25" stroke="#111827" stroke-width="1.125" stroke-linecap="round" stroke-linejoin="round"/>
<path d="M12 18.75C12 17.9216 11.3284 17.25 10.5 17.25" stroke="#111827" stroke-width="1.125" stroke-linecap="round" stroke-linejoin="round"/>
</svg>

<svg width="24" height="24" fill="none" xmlns="http://www.w3.org/2000/svg"><path d="M12 18.75V8.25a1.5 1.5 0 0 1 1.5-1.5h5.55a.45.45 0 0 1 .45.45v9.836M12 18.75V8.25a1.5 1.5 0 0 0-1.5-1.5H4.95a.45.45 0 0 0-.45.45v9.836M13.5 17.25h6M10.5 17.25h-6" stroke="#111827" stroke-width="1.125" stroke-linecap="round"/><path d="M12 18.75a1.5 1.5 0 0 1 1.5-1.5M12 18.75a1.5 1.5 0 0 0-1.5-1.5" stroke="#111827" stroke-width="1.125" stroke-linecap="round" stroke-linejoin="round"/></svg>
